picto/customs-fr.svg

<svg class="color-immutable" width="24" height="24" viewBox="0 0 24 24" fill="none" xmlns="http://www.w3.org/2000/svg"><path d="M0 22.5V1.5C0 0.675 0.675 0 1.5 0H22.5C23.325 0 24 0.675 24 1.5V22.5C24 23.325 23.325 24 22.5 24H1.5C0.675 24 0 23.325 0 22.5Z" fill="#2D327D"/><path d="M18.749 7.5H14.738V6.6C14.738 5.855 14.132 5.25 13.387 5.25H10.612C9.86702 5.25 9.26202 5.855 9.26202 6.6V7.5H5.25002C4.00802 7.5 2.99902 8.507 2.99902 9.75V18.75C2.99902 19.992 4.00802 21 5.25002 21H18.749C19.992 21 21 19.993 21 18.75V9.75C21.001 8.508 19.993 7.5 18.749 7.5ZM13.688 7.5H10.312V6.3H13.688V7.5Z" fill="white"/><path d="M9.77199 8.925C6.85299 8.925 4.48499 11.217 4.48499 14.136C4.48499 17.055 6.85299 19.5 9.77199 19.5C12.691 19.5 15.06 17.055 15.06 14.136C15.06 11.217 12.691 8.925 9.77199 8.925ZM9.77199 18.095C7.68199 18.095 5.98399 16.398 5.98399 14.307C5.98399 12.217 7.68099 10.52 9.77199 10.52C11.862 10.52 13.559 12.217 13.559 14.307C13.559 16.398 11.862 18.095 9.77199 18.095Z" fill="#EB0000"/><path d="M7.72496 14.85H11.85C12.161 14.85 12.413 14.598 12.413 14.287C12.413 13.977 12.161 13.724 11.85 13.724H7.72496C7.41396 13.724 7.16296 13.976 7.16296 14.287C7.16296 14.598 7.41396 14.85 7.72496 14.85Z" fill="black"/><path d="M7.16296 12.307H7.58596C7.66496 12.307 7.73196 12.316 7.78796 12.334C7.84396 12.352 7.89396 12.381 7.93596 12.42C8.03996 12.515 8.09296 12.648 8.09296 12.817C8.09296 12.996 8.04396 13.135 7.94496 13.233C7.90196 13.276 7.85296 13.307 7.79796 13.326C7.74396 13.344 7.67496 13.354 7.59096 13.354H7.16296V12.307ZM7.39196 12.5V13.159H7.56796C7.62196 13.159 7.66496 13.154 7.69696 13.143C7.72896 13.132 7.75696 13.114 7.78096 13.088C7.83596 13.028 7.86396 12.94 7.86396 12.824C7.86396 12.717 7.83796 12.636 7.78696 12.581C7.73496 12.528 7.65896 12.5 7.55896 12.5H7.39196Z" fill="black"/><path d="M8.60398 12.55C8.71698 12.55 8.80998 12.588 8.88198 12.663C8.95298 12.737 8.98898 12.837 8.98898 12.961C8.98898 13.089 8.95098 13.192 8.87498 13.268C8.80398 13.339 8.71098 13.375 8.59698 13.375C8.47498 13.375 8.37898 13.335 8.30698 13.256C8.23798 13.181 8.20398 13.083 8.20398 12.963C8.20398 12.845 8.23698 12.749 8.30398 12.675C8.37898 12.591 8.47898 12.55 8.60398 12.55ZM8.59398 12.712C8.53898 12.712 8.49598 12.734 8.46298 12.779C8.42998 12.824 8.41398 12.885 8.41398 12.963C8.41398 13.044 8.42998 13.105 8.46298 13.148C8.49598 13.191 8.54198 13.213 8.59998 13.213C8.65398 13.213 8.69698 13.193 8.72798 13.154C8.76398 13.11 8.78198 13.046 8.78198 12.963C8.78198 12.885 8.76598 12.824 8.73498 12.781C8.69998 12.734 8.65398 12.712 8.59398 12.712Z" fill="black"/><path d="M9.83402 12.572V13.353H9.63702V13.239C9.57702 13.329 9.49402 13.374 9.38702 13.374C9.29402 13.374 9.22302 13.343 9.17502 13.28C9.15702 13.256 9.14402 13.227 9.13602 13.194C9.12802 13.161 9.12402 13.118 9.12402 13.065V12.571H9.33102V13.001C9.33102 13.046 9.33202 13.077 9.33502 13.096C9.33802 13.115 9.34302 13.13 9.35102 13.143C9.37302 13.178 9.41002 13.195 9.46302 13.195C9.52802 13.195 9.57602 13.166 9.60502 13.108C9.61902 13.08 9.62602 13.029 9.62602 12.956V12.571H9.83402V12.572Z" fill="black"/><path d="M10.699 13.353H10.487C10.478 13.323 10.473 13.297 10.473 13.275C10.408 13.341 10.324 13.374 10.222 13.374C10.142 13.374 10.079 13.355 10.035 13.318C9.98401 13.275 9.95801 13.215 9.95801 13.138C9.95801 13.04 10.002 12.973 10.09 12.935C10.126 12.92 10.192 12.906 10.287 12.893C10.369 12.882 10.421 12.871 10.441 12.861C10.461 12.851 10.471 12.83 10.471 12.799C10.471 12.731 10.426 12.697 10.335 12.697C10.287 12.697 10.252 12.706 10.23 12.723C10.208 12.74 10.193 12.77 10.186 12.812H9.99101C9.99701 12.725 10.03 12.66 10.089 12.616C10.148 12.572 10.232 12.55 10.341 12.55C10.462 12.55 10.551 12.575 10.608 12.624C10.635 12.647 10.652 12.671 10.661 12.698C10.67 12.724 10.674 12.766 10.674 12.822C10.674 12.834 10.673 12.886 10.672 12.979C10.671 13.073 10.671 13.127 10.671 13.141C10.671 13.198 10.673 13.239 10.676 13.266C10.68 13.292 10.688 13.321 10.699 13.353ZM10.471 12.976C10.444 12.993 10.396 13.006 10.325 13.015C10.275 13.023 10.24 13.032 10.218 13.044C10.187 13.061 10.172 13.089 10.172 13.129C10.172 13.161 10.182 13.187 10.203 13.205C10.223 13.223 10.252 13.232 10.289 13.232C10.35 13.232 10.399 13.211 10.437 13.168C10.45 13.153 10.46 13.138 10.465 13.122C10.47 13.106 10.473 13.085 10.473 13.059V12.976H10.471Z" fill="black"/><path d="M11.031 12.574V12.683C11.055 12.65 11.078 12.625 11.099 12.609C11.15 12.569 11.212 12.549 11.285 12.549C11.349 12.549 11.403 12.565 11.447 12.598C11.482 12.624 11.507 12.656 11.521 12.696C11.535 12.735 11.542 12.791 11.542 12.862V13.353H11.335V12.906C11.335 12.856 11.331 12.819 11.322 12.796C11.314 12.775 11.3 12.759 11.281 12.747C11.259 12.734 11.233 12.728 11.204 12.728C11.173 12.728 11.144 12.736 11.118 12.751C11.092 12.766 11.073 12.787 11.061 12.813C11.047 12.843 11.04 12.889 11.04 12.951V13.353H10.833V12.574H11.031Z" fill="black"/><path d="M12.4069 13.109C12.3959 13.153 12.3759 13.194 12.3479 13.233C12.2789 13.327 12.1809 13.374 12.0519 13.374C11.9359 13.374 11.8419 13.337 11.7719 13.264C11.7379 13.228 11.7109 13.185 11.6929 13.135C11.6729 13.081 11.6639 13.025 11.6639 12.966C11.6639 12.853 11.6969 12.757 11.7619 12.68C11.8349 12.594 11.9289 12.551 12.0449 12.551C12.1379 12.551 12.2179 12.58 12.2839 12.637C12.3309 12.679 12.3659 12.73 12.3869 12.79C12.4079 12.851 12.4189 12.927 12.4189 13.019H11.8749C11.8769 13.057 11.8829 13.089 11.8929 13.114C11.9209 13.182 11.9749 13.216 12.0529 13.216C12.0919 13.216 12.1229 13.208 12.1469 13.191C12.1709 13.174 12.1909 13.147 12.2069 13.109H12.4069ZM12.2079 12.88C12.2039 12.842 12.1959 12.811 12.1819 12.786C12.1689 12.762 12.1499 12.742 12.1249 12.728C12.0999 12.714 12.0739 12.707 12.0449 12.707C11.9989 12.707 11.9609 12.723 11.9309 12.754C11.9009 12.785 11.8829 12.827 11.8769 12.881H12.2079V12.88Z" fill="black"/></svg>

<svg class="color-immutable" width="24" height="24" viewBox="0 0 24 24" fill="none" xmlns="http://www.w3.org/2000/svg"><g clip-path="url(#a)"><path d="M0 22.5v-21C0 .675.675 0 1.5 0h21c.825 0 1.5.675 1.5 1.5v21c0 .825-.675 1.5-1.5 1.5h-21C.675 24 0 23.325 0 22.5Z" fill="#2D327D"/><path d="M18.749 7.5h-4.011v-.9c0-.745-.606-1.35-1.351-1.35h-2.775a1.35 1.35 0 0 0-1.35 1.35v.9H5.25a2.251 2.251 0 0 0-2.251 2.25v9A2.252 2.252 0 0 0 5.25 21h13.499A2.25 2.25 0 0 0 21 18.75v-9a2.25 2.25 0 0 0-2.251-2.25Zm-5.061 0h-3.376V6.3h3.376v1.2Z" fill="#fff"/><path d="M9.772 8.925c-2.919 0-5.287 2.292-5.287 5.211 0 2.919 2.368 5.364 5.287 5.364s5.288-2.445 5.288-5.364-2.369-5.211-5.288-5.211Zm0 9.17a3.79 3.79 0 0 1-3.788-3.788 3.79 3.79 0 0 1 3.788-3.787 3.789 3.789 0 0 1 3.787 3.787 3.79 3.79 0 0 1-3.787 3.788Z" fill="#EB0000"/><path d="M7.725 14.85h4.125a.563.563 0 1 0 0-1.126H7.725a.562.562 0 0 0 0 1.126ZM7.163 12.307h.423c.079 0 .146.009.202.027a.392.392 0 0 1 .148.086.512.512 0 0 1 .157.397c0 .179-.049.318-.148.416a.383.383 0 0 1-.147.093.663.663 0 0 1-.207.028h-.428v-1.047Zm.229.193v.659h.176a.41.41 0 0 0 .129-.016.202.202 0 0 0 .084-.055c.055-.06.083-.148.083-.264 0-.107-.026-.188-.077-.243-.052-.053-.128-.081-.228-.081h-.167ZM8.604 12.55a.37.37 0 0 1 .278.113.414.414 0 0 1 .107.298.416.416 0 0 1-.114.307.377.377 0 0 1-.278.107.373.373 0 0 1-.29-.119.416.416 0 0 1-.103-.293c0-.118.033-.214.1-.288a.382.382 0 0 1 .3-.125Zm-.01.162a.153.153 0 0 0-.131.067.304.304 0 0 0-.049.184c0 .081.016.142.049.185a.164.164 0 0 0 .137.065c.054 0 .097-.02.128-.059a.296.296 0 0 0 .054-.191.308.308 0 0 0-.047-.182.164.164 0 0 0-.141-.069ZM9.834 12.572v.781h-.197v-.114a.284.284 0 0 1-.25.135c-.093 0-.164-.031-.212-.094a.234.234 0 0 1-.039-.086.565.565 0 0 1-.012-.129v-.494h.207v.43c0 .045.001.076.004.095a.124.124 0 0 0 .016.047c.022.035.059.052.112.052a.148.148 0 0 0 .142-.087.379.379 0 0 0 .021-.152v-.385h.208v.001ZM10.699 13.353h-.212a.28.28 0 0 1-.014-.078.338.338 0 0 1-.251.099.284.284 0 0 1-.187-.056.223.223 0 0 1-.077-.18c0-.098.044-.165.132-.203a.908.908 0 0 1 .197-.042.652.652 0 0 0 .154-.032c.02-.01.03-.031.03-.062 0-.068-.045-.102-.136-.102-.048 0-.083.009-.105.026-.022.017-.037.047-.044.089h-.195a.252.252 0 0 1 .098-.196.415.415 0 0 1 .252-.066c.121 0 .21.025.267.074a.165.165 0 0 1 .053.074.418.418 0 0 1 .013.124l-.002.157-.001.162c0 .057.002.098.005.125a.515.515 0 0 0 .023.087Zm-.228-.377a.387.387 0 0 1-.146.039.357.357 0 0 0-.107.029c-.031.017-.046.045-.046.085 0 .032.01.058.031.076.02.018.049.027.086.027.061 0 .11-.021.148-.064a.133.133 0 0 0 .028-.046.215.215 0 0 0 .008-.063v-.083h-.002ZM11.031 12.574v.109a.292.292 0 0 1 .254-.134c.064 0 .118.016.162.049.035.026.06.058.074.098a.515.515 0 0 1 .021.166v.491h-.207v-.447a.33.33 0 0 0-.013-.11.098.098 0 0 0-.041-.049.17.17 0 0 0-.163.004.137.137 0 0 0-.057.062.343.343 0 0 0-.021.138v.402h-.207v-.779h.198ZM12.407 13.109a.362.362 0 0 1-.06.124.344.344 0 0 1-.295.141.371.371 0 0 1-.28-.11.368.368 0 0 1-.08-.129.48.48 0 0 1-.028-.169.43.43 0 0 1 .098-.286.354.354 0 0 1 .283-.129.354.354 0 0 1 .342.239.71.71 0 0 1 .032.229h-.544c.002.038.008.07.018.095.028.068.082.102.16.102.039 0 .07-.008.094-.025a.185.185 0 0 0 .06-.082h.2Zm-.2-.229a.243.243 0 0 0-.025-.094.144.144 0 0 0-.057-.058.16.16 0 0 0-.08-.021.152.152 0 0 0-.114.047.21.21 0 0 0-.054.127h.33v-.001Z" fill="#000"/></g><defs><clipPath id="a"><path fill="#fff" d="M0 0h24v24H0z"/></clipPath></defs></svg>
